Sources/FrostedUI/Resources/Icons.xcassets/fileLinesSize32.imageset/file-lines-size-32.svg

<svg
  width="32"
  height="32"
  viewBox="0 0 32 32"
  fill="none"
  xmlns="http://www.w3.org/2000/svg"
  data-fui-icon="true"
>
  <path
    d="M17.781 4.44772L18.3114 3.9174L18.3114 3.91738L17.781 4.44772ZM24.8856 11.5523L24.3552 12.0826L24.3553 12.0826L24.8856 11.5523ZM10.375 21.75C9.96077 21.75 9.62498 22.0858 9.62498 22.5C9.62498 22.9142 9.96077 23.25 10.375 23.25V21.75ZM21.625 23.25C22.0392 23.25 22.375 22.9142 22.375 22.5C22.375 22.0858 22.0392 21.75 21.625 21.75V23.25ZM10.375 16.2708C9.96077 16.2708 9.62498 16.6066 9.62498 17.0208C9.62498 17.4351 9.96077 17.7708 10.375 17.7708V16.2708ZM16.3125 17.7708C16.7267 17.7708 17.0625 17.4351 17.0625 17.0208C17.0625 16.6066 16.7267 16.2708 16.3125 16.2708V17.7708ZM16.25 4.33334V9.66667H17.75V4.33334H16.25ZM16.25 9.66667C16.25 11.5536 17.7796 13.0833 19.6666 13.0833V11.5833C18.6081 11.5833 17.75 10.7252 17.75 9.66667H16.25ZM19.6666 13.0833H25V11.5833H19.6666V13.0833ZM8.99998 4.41667H15.8954V2.91667H8.99998V4.41667ZM15.8954 4.41667C16.4037 4.41667 16.8912 4.61859 17.2507 4.97807L18.3114 3.91738C17.6706 3.27664 16.8016 2.91667 15.8954 2.91667V4.41667ZM17.2507 4.97805L24.3552 12.0826L25.4159 11.022L18.3114 3.9174L17.2507 4.97805ZM24.3553 12.0826C24.7147 12.4421 24.9166 12.9296 24.9166 13.4379H26.4166C26.4166 12.5317 26.0567 11.6627 25.4159 11.0219L24.3553 12.0826ZM24.9166 13.4379V25.6667H26.4166V13.4379H24.9166ZM24.9166 25.6667C24.9166 26.7253 24.0586 27.5833 23 27.5833V29.0833C24.887 29.0833 26.4166 27.5537 26.4166 25.6667H24.9166ZM23 27.5833H8.99998V29.0833H23V27.5833ZM8.99998 27.5833C7.94143 27.5833 7.08331 26.7253 7.08331 25.6667H5.58331C5.58331 27.5537 7.11301 29.0833 8.99998 29.0833V27.5833ZM7.08331 25.6667V6.33334H5.58331V25.6667H7.08331ZM7.08331 6.33334C7.08331 5.27479 7.94143 4.41667 8.99998 4.41667V2.91667C7.11301 2.91667 5.58331 4.44636 5.58331 6.33334H7.08331ZM10.375 23.25H21.625V21.75H10.375V23.25ZM10.375 17.7708H16.3125V16.2708H10.375V17.7708Z"
    fill="currentColor"
  />
</svg>

<svg xmlns="http://www.w3.org/2000/svg" width="32" height="32" fill="none" data-fui-icon="true" viewBox="0 0 32 32"><path fill="currentColor" d="m17.781 4.448.53-.53zm7.105 7.104-.53.53zM10.375 21.75a.75.75 0 1 0 0 1.5zm11.25 1.5a.75.75 0 0 0 0-1.5zm-11.25-6.98a.75.75 0 1 0 0 1.5zm5.938 1.5a.75.75 0 1 0 0-1.5zM16.25 4.334v5.334h1.5V4.333zm0 5.334a3.417 3.417 0 0 0 3.417 3.416v-1.5a1.917 1.917 0 0 1-1.917-1.916zm3.417 3.416H25v-1.5h-5.333zM9 4.417h6.895v-1.5H9zm6.895 0c.509 0 .996.202 1.356.561l1.06-1.06c-.64-.641-1.51-1.001-2.416-1.001zm1.356.561 7.104 7.105 1.06-1.061-7.104-7.105zm7.104 7.105c.36.36.562.847.562 1.355h1.5c0-.906-.36-1.775-1.001-2.416zm.562 1.355v12.229h1.5v-12.23zm0 12.229A1.916 1.916 0 0 1 23 27.583v1.5a3.417 3.417 0 0 0 3.417-3.416zM23 27.583H9v1.5h14zm-14 0a1.917 1.917 0 0 1-1.917-1.916h-1.5A3.417 3.417 0 0 0 9 29.083zm-1.917-1.916V6.333h-1.5v19.334zm0-19.334c0-1.058.858-1.916 1.917-1.916v-1.5a3.417 3.417 0 0 0-3.417 3.416zm3.292 16.917h11.25v-1.5h-11.25zm0-5.48h5.938v-1.5h-5.938z"/></svg>
